client/public/images/i_text.svg

<svg viewBox="0 0 168 168" xmlns="http://www.w3.org/2000/svg"><path d="m117.15 128.72a33.2 33.2 0 0 1 -10.15 4.86 40.77 40.77 0 0 1 -11.4 1.62q-12.6-.2-19.19-7.2t-6.56-20.81v-45.19h-13.44v-14.91h13.44v-19l20.73-2.43v21.43h19.92l-2.1 14.91h-17.82v44.7c0 4.21.73 7.24 2.19 9.07s3.75 2.75 6.88 2.75a19.79 19.79 0 0 0 10.21-3.23z" fill="#1d327f"/></svg>

<svg xmlns="http://www.w3.org/2000/svg" viewBox="0 0 168 168">
  <title>text_1</title>
  <g id="contenu">
    <path d="M117.15,128.72A33.2,33.2,0,0,1,107,133.58,40.77,40.77,0,0,1,95.6,135.2Q83,135,76.41,128t-6.56-20.81V62H56.41V47.09H69.85v-19l20.73-2.43V47.09H110.5L108.4,62H90.58v44.7c0,4.21.73,7.24,2.19,9.07s3.75,2.75,6.88,2.75a19.79,19.79,0,0,0,10.21-3.23Z" style="fill: #1d327f"/>
  </g>
</svg>
